LUTs/Generic Flat.cube
# Copyright: (C) Copyright by CREEP
TITLE "LUT created by for SGS8+"
LUT_3D_SIZE 32
0.000000 0.000000 0.000000
0.055166 0.024498 0.024498
0.109964 0.048819 0.048819
0.149707 0.065935 0.065935
0.187691 0.082217 0.082217
0.221146 0.096632 0.096632
0.253545 0.110572 0.110572
0.283512 0.123109 0.123109
0.312629 0.135133 0.135133
0.340022 0.146111 0.146111
0.366741 0.156642 0.156642
0.391994 0.166700 0.166700
0.416574 0.176561 0.176561
0.440277 0.185864 0.185864
0.463362 0.194825 0.194825
0.485728 0.203411 0.203411
0.507467 0.211705 0.211705
0.528658 0.219713 0.219713
0.549297 0.227447 0.227447
0.569596 0.234958 0.234958
0.589350 0.242233 0.242233
0.608762 0.249385 0.249385
0.627460 0.256332 0.256332
0.646136 0.263278 0.263278
0.664742 0.270201 0.270201
0.683982 0.277928 0.277928
0.705221 0.288123 0.288123
0.726444 0.298392 0.298392
0.746980 0.308509 0.308509
0.767449 0.318590 0.318590
0.787343 0.328127 0.328127
0.807159 0.337708 0.337708
0.032158 0.053399 0.032158
0.054135 0.053989 0.034671
0.108376 0.077700 0.058490
0.146950 0.086680 0.071161
0.184808 0.101807 0.086824
0.218806 0.111648 0.099697
0.251330 0.124440 0.113247
0.281583 0.134233 0.124861
0.310836 0.145249 0.136611
0.338503 0.154878 0.147468
0.365325 0.164828 0.157945
0.390753 0.173677 0.167672
0.415407 0.182887 0.177337
0.439185 0.191532 0.186522
0.462355 0.200037 0.195398
0.484780 0.208168 0.203923
0.506567 0.216049 0.212124
0.527840 0.223767 0.220114
0.548534 0.231171 0.227789
0.568820 0.238462 0.235273
0.588627 0.245387 0.242460
0.608151 0.252456 0.249623
0.627046 0.259248 0.256651
0.645680 0.266042 0.263529
0.664222 0.272607 0.270327
0.683466 0.280322 0.278077
0.704658 0.290374 0.288341
0.725859 0.300546 0.298609
0.746421 0.310355 0.308577
0.766892 0.320418 0.318650
0.786815 0.329806 0.328218
0.806602 0.339293 0.337768
0.064075 0.106400 0.064075
0.085251 0.106609 0.066182
0.107282 0.107104 0.068700
0.145318 0.115432 0.080782
0.182050 0.122644 0.092142
0.215890 0.131329 0.104342
0.248930 0.139694 0.116379
0.279310 0.148261 0.127588
0.308828 0.156598 0.138400
0.336641 0.165189 0.148969
0.363725 0.173821 0.159367
0.389271 0.182055 0.169007
0.414079 0.190094 0.178330
0.437937 0.198081 0.187344
0.461195 0.205909 0.196103
0.483694 0.213572 0.204524
0.505587 0.220982 0.212648
0.526910 0.228301 0.220539
0.547656 0.235391 0.228196
0.568000 0.242359 0.235641
0.587816 0.249029 0.242772
0.607350 0.255753 0.249857
0.626400 0.262469 0.256943
0.645237 0.269078 0.263867
0.663752 0.275540 0.270601
0.682908 0.282909 0.278238
0.704128 0.292902 0.288520
0.725272 0.302931 0.298860
0.745854 0.312694 0.308803
0.766358 0.322422 0.318752
0.786197 0.331758 0.328282
0.806071 0.341062 0.337803
0.085536 0.143404 0.085536
0.098061 0.143373 0.086466
0.119211 0.143575 0.088560
0.144067 0.143851 0.091268
0.180130 0.150502 0.102011
0.212181 0.156086 0.111322
0.244974 0.163812 0.122840
0.275205 0.169978 0.132562
0.304703 0.177586 0.142962
0.332644 0.184047 0.152414
0.359835 0.191817 0.162407
0.385701 0.198522 0.171670
0.410638 0.205831 0.180789
0.434728 0.212434 0.189392
0.458125 0.219545 0.197918
0.480839 0.226243 0.206133
0.502843 0.232981 0.214099
0.524337 0.239538 0.221837
0.545223 0.245972 0.229340
0.565623 0.252429 0.236746
0.585507 0.258551 0.243825
0.605175 0.264820 0.250780
0.624372 0.270767 0.257540
0.643325 0.277121 0.264466
0.662009 0.282979 0.271071
0.681194 0.290096 0.278636
0.702393 0.299454 0.288869
0.723528 0.309372 0.299177
0.744084 0.318561 0.309085
0.764586 0.328121 0.318976
0.784537 0.336988 0.328471
0.804357 0.346241 0.337961
0.105813 0.178495 0.105813
0.117065 0.178432 0.106542
0.129788 0.178401 0.107438
0.153769 0.178383 0.109685
0.178864 0.178655 0.112421
0.210238 0.183741 0.121138
0.241163 0.188904 0.129988
0.271127 0.194547 0.139213
0.300419 0.199970 0.148136
0.328307 0.205717 0.157142
0.355639 0.211379 0.166022
0.381551 0.217301 0.174872
0.406822 0.223083 0.183578
0.431066 0.229050 0.191971
0.454713 0.234737 0.200111
0.477540 0.240723 0.208104
0.499786 0.246437 0.215814
0.521388 0.252313 0.223379
0.542457 0.257937 0.230694
0.562989 0.263745 0.237956
0.582932 0.269352 0.245018
0.602633 0.275037 0.251906
0.622035 0.280423 0.258509
0.641147 0.286065 0.265147
0.659954 0.291601 0.271709
0.679313 0.298136 0.279151
0.700486 0.307210 0.289330
0.721646 0.316474 0.299562
0.742177 0.325447 0.309437
0.762676 0.334492 0.319241
0.782599 0.343166 0.328725
0.802478 0.351890 0.338151
0.122811 0.208810 0.122811
0.130726 0.208743 0.123244
0.142160 0.208675 0.123981
0.160954 0.208460 0.125410
0.185137 0.208381 0.127644
0.208701 0.208515 0.130217
0.238957 0.213212 0.138446
0.267304 0.217538 0.146017
0.296314 0.222630 0.154556
0.323697 0.227189 0.162472
0.350858 0.232385 0.170979
0.376796 0.237117 0.178973
0.402075 0.242446 0.187360
0.426464 0.247325 0.195219
0.450173 0.252569 0.203141
0.473204 0.257522 0.210701
0.495542 0.262741 0.218200
0.517368 0.267759 0.225507
0.538561 0.272907 0.232660
0.559363 0.278042 0.239784
0.579526 0.283160 0.246743
0.599331 0.288333 0.253524
0.618859 0.293217 0.259961
0.638143 0.298367 0.266488
0.657140 0.303433 0.272980
0.676532 0.309502 0.280310
0.697691 0.317696 0.290123
0.718803 0.326678 0.300303
0.739317 0.334899 0.309983
0.759762 0.343685 0.319778
0.779681 0.351718 0.329079
0.799559 0.360328 0.338470
0.139026 0.237998 0.139026
0.146101 0.237904 0.139385
0.154226 0.237832 0.139833
0.172021 0.237566 0.141117
0.191436 0.237329 0.142570
0.214124 0.237075 0.144648
0.237360 0.237165 0.147194
0.264998 0.241025 0.154134
0.292494 0.245127 0.161261
0.319557 0.249402 0.168827
0.346162 0.253630 0.176352
0.371906 0.258023 0.184001
0.397177 0.262357 0.191582
0.421556 0.266833 0.199148
0.445388 0.271123 0.206483
0.468480 0.275630 0.213811
0.490999 0.279936 0.220905
0.512919 0.284525 0.228014
0.534302 0.288852 0.234877
0.555226 0.293556 0.241826
0.575674 0.298052 0.248665
0.595764 0.302785 0.255358
0.615401 0.307125 0.261671
0.634831 0.311761 0.268078
0.653980 0.316425 0.274480
0.673561 0.321985 0.281742
0.694698 0.329704 0.291355
0.715804 0.337777 0.301179
0.736222 0.345595 0.310753
0.756628 0.353673 0.320324
0.776544 0.361477 0.329623
0.796391 0.369420 0.338884
0.153310 0.264398 0.153310
0.158799 0.264312 0.153583
0.166051 0.264211 0.153932
0.180694 0.264027 0.154840
0.199165 0.263747 0.156194
0.218818 0.263364 0.157639
0.241197 0.263032 0.159630
0.263020 0.262854 0.161796
0.289799 0.266447 0.168296
0.315687 0.270141 0.174947
0.342036 0.274196 0.182195
0.367223 0.277920 0.189019
0.392299 0.281971 0.196286
0.416570 0.285797 0.203262
0.440315 0.289819 0.210340
0.463437 0.293678 0.217199
0.485966 0.297716 0.224093
0.508036 0.301631 0.230859
0.529491 0.305709 0.237547
0.550591 0.309750 0.244182
0.571133 0.313890 0.250817
0.591506 0.318182 0.257461
0.611392 0.322286 0.263744
0.631029 0.326519 0.270020
0.650429 0.330854 0.276404
0.669965 0.335922 0.283468
0.690851 0.342892 0.292730
0.711923 0.350500 0.302395
0.732442 0.357730 0.311702
0.752845 0.365471 0.321192
0.772736 0.372613 0.330267
0.792612 0.380320 0.339530
0.166907 0.289810 0.166907
0.171838 0.289725 0.167147
0.177532 0.289667 0.167411
0.191283 0.289481 0.168217
0.206649 0.289269 0.169197
0.225565 0.288814 0.170499
0.245314 0.288351 0.171918
0.266328 0.287770 0.173543
0.287725 0.287550 0.175620
0.312904 0.290772 0.181648
0.338176 0.294333 0.188106
0.363094 0.297916 0.194684
0.387617 0.301415 0.201204
0.411681 0.305001 0.207880
0.435251 0.308510 0.214412
0.458313 0.312148 0.221064
0.480845 0.315641 0.227530
0.502920 0.319341 0.234101
0.524503 0.322822 0.240462
0.545669 0.326619 0.246938
0.566379 0.330211 0.253228
0.586837 0.334116 0.259647
0.607025 0.337945 0.265900
0.626885 0.341948 0.272182
0.646545 0.345979 0.278494
0.666315 0.350707 0.285504
0.686993 0.357086 0.294481
0.707802 0.363954 0.303748
0.728376 0.370822 0.312939
0.748805 0.377896 0.322194
0.768696 0.384737 0.331191
0.788573 0.391824 0.340259
0.179283 0.313389 0.179283
0.183351 0.313319 0.179422
0.188474 0.313260 0.179675
0.200085 0.313047 0.180237
0.214505 0.312848 0.181086
0.231131 0.312359 0.181991
0.250207 0.311881 0.183270
0.269486 0.311353 0.184693
0.290137 0.310727 0.186253
0.310592 0.310454 0.188229
0.335175 0.313537 0.194086
0.359198 0.316751 0.200037
0.383464 0.320141 0.206359
0.407033 0.323353 0.212464
0.430458 0.326730 0.218815
0.453325 0.329984 0.225007
0.475784 0.333332 0.231305
0.497894 0.336658 0.237522
0.519498 0.340064 0.243771
0.540846 0.343479 0.250004
0.561656 0.346962 0.256188
0.582248 0.350460 0.262373
0.602538 0.354066 0.268525
0.622658 0.357817 0.274747
0.642502 0.361679 0.281020
0.662374 0.366039 0.287813
0.683006 0.371868 0.296429
0.703635 0.378210 0.305451
0.724062 0.384588 0.314416
0.744533 0.391338 0.323542
0.764358 0.397609 0.332311
0.784213 0.404444 0.341293
0.191140 0.336234 0.191140
0.194820 0.336172 0.191274
0.199083 0.336095 0.191429
0.209880 0.335859 0.191898
0.222173 0.335657 0.192473
0.238022 0.335173 0.193236
0.254996 0.334649 0.194113
0.273779 0.334153 0.195477
0.292906 0.333609 0.196940
0.312652 0.332911 0.198396
0.332805 0.332665 0.200387
0.356131 0.335416 0.205758
0.379539 0.338459 0.211516
0.402871 0.341587 0.217436
0.425832 0.344641 0.223306
0.448553 0.347792 0.229306
0.470819 0.350847 0.235219
0.492871 0.354067 0.241282
0.514511 0.357231 0.247238
0.535896 0.360504 0.253367
0.556932 0.363800 0.259388
0.577627 0.367184 0.265467
0.598040 0.370473 0.271437
0.618268 0.374047 0.277561
0.638310 0.377722 0.283734
0.658381 0.381871 0.290482
0.678909 0.387173 0.298712
0.699464 0.393006 0.307352
0.719798 0.398980 0.316160
0.740121 0.405261 0.325074
0.759942 0.411289 0.333747
0.779727 0.417513 0.342482
0.202067 0.357734 0.202067
0.205231 0.357671 0.202199
0.209094 0.357586 0.202338
0.218499 0.357377 0.202659
0.229991 0.357131 0.203173
0.244194 0.356689 0.203768
0.260446 0.356182 0.204515
0.277565 0.355627 0.205549
0.296266 0.355108 0.206938
0.314833 0.354507 0.208280
0.334249 0.353836 0.209731
0.353645 0.353526 0.211640
0.376409 0.356121 0.216855
0.399079 0.359074 0.222331
0.421853 0.362102 0.228035
0.444246 0.365056 0.233697
0.466415 0.368093 0.239477
0.488306 0.371107 0.245240
0.509906 0.374182 0.251102
0.531321 0.377313 0.256985
0.552364 0.380536 0.262925
0.573286 0.383818 0.268899
0.593796 0.387110 0.274857
0.614167 0.390424 0.280839
0.634327 0.393974 0.286946
0.654467 0.397860 0.293437
0.674976 0.402840 0.301362
0.695426 0.408177 0.309688
0.715604 0.413811 0.318285
0.735866 0.419788 0.327059
0.755551 0.425400 0.335498
0.775304 0.431355 0.344136
0.212610 0.378603 0.212610
0.215513 0.378541 0.212692
0.218838 0.378462 0.212820
0.227577 0.378225 0.213082
0.237599 0.377971 0.213451
0.251141 0.377567 0.214004
0.265857 0.377090 0.214664
0.282391 0.376544 0.215563
0.299616 0.375964 0.216620
0.317770 0.375410 0.217902
0.336171 0.374799 0.219197
0.354856 0.374090 0.220619
0.373927 0.373811 0.222538
0.395942 0.376299 0.227465
0.418169 0.379186 0.232800
0.440363 0.382156 0.238339
0.462273 0.385083 0.243842
0.484063 0.388048 0.249502
0.505583 0.391062 0.255117
0.526944 0.394132 0.260891
0.547996 0.397235 0.266656
0.568944 0.400455 0.272585
0.589659 0.403709 0.278500
0.610123 0.407007 0.284449
0.630399 0.410413 0.290401
0.650635 0.414174 0.296827
0.671124 0.418764 0.304345
0.691539 0.423773 0.312331
0.711560 0.429070 0.320770
0.731682 0.434650 0.329338
0.751266 0.439964 0.337635
0.770902 0.445539 0.346027
0.222621 0.398684 0.222621
0.225207 0.398618 0.222714
0.228265 0.398571 0.222830
0.236129 0.398419 0.223123
0.245494 0.398178 0.223396
0.257739 0.397753 0.223891
0.271797 0.397314 0.224484
0.287173 0.396902 0.225348
0.303852 0.396339 0.226318
0.320831 0.395738 0.227259
0.338838 0.395158 0.228494
0.356709 0.394565 0.229770
0.375117 0.393849 0.231179
0.393710 0.393613 0.233072
0.415326 0.396075 0.237898
0.437064 0.398973 0.243154
0.458830 0.401888 0.248570
0.480392 0.404833 0.253978
0.501826 0.407804 0.259541
0.523131 0.410856 0.265206
0.544190 0.413957 0.270970
0.565131 0.417077 0.276672
0.585836 0.420331 0.282491
0.606519 0.423656 0.288450
0.626932 0.427068 0.294425
0.647234 0.430623 0.300636
0.667697 0.435032 0.307974
0.688052 0.439676 0.315600
0.707969 0.444699 0.323767
0.727913 0.449937 0.332142
0.747379 0.454957 0.340229
0.766932 0.460250 0.348489
0.232375 0.418265 0.232375
0.234762 0.418220 0.232467
0.237439 0.418184 0.232549
0.244813 0.418106 0.232830
0.253217 0.417935 0.233146
0.264925 0.417537 0.233560
0.277738 0.417092 0.234080
0.292610 0.416726 0.234950
0.308256 0.416339 0.235906
0.324758 0.415744 0.236739
0.341716 0.415172 0.237664
0.359271 0.414577 0.238845
0.376951 0.413982 0.240115
0.394933 0.413353 0.241542
0.413302 0.413204 0.243507
0.434455 0.415643 0.248243
0.455811 0.418556 0.253427
0.477248 0.421482 0.258764
0.498503 0.424466 0.264158
0.519718 0.427499 0.269758
0.540774 0.430693 0.275521
0.561695 0.433803 0.281222
0.582382 0.436962 0.286821
0.603077 0.440239 0.292657
0.623734 0.443764 0.298700
0.644166 0.447381 0.304945
0.664575 0.451509 0.311960
0.684890 0.455972 0.319387
0.704683 0.460676 0.327277
0.724491 0.465623 0.335417
0.743809 0.470360 0.343288
0.763211 0.475334 0.351298
0.242005 0.437623 0.242005
0.244151 0.437576 0.242067
0.246623 0.437528 0.242135
0.253361 0.437432 0.242415
0.261272 0.437337 0.242706
0.272031 0.437050 0.243189
0.284270 0.436591 0.243658
0.298047 0.436247 0.244321
0.313208 0.435945 0.245265
0.328911 0.435521 0.246147
0.345422 0.434936 0.246936
0.362175 0.434399 0.247996
0.379579 0.433850 0.249217
0.396941 0.433349 0.250542
0.414734 0.432786 0.252015
0.432805 0.432729 0.254004
0.453621 0.435209 0.258710
0.474757 0.438172 0.263928
0.495897 0.441192 0.269233
0.516980 0.444244 0.274701
0.537973 0.447443 0.280421
0.558940 0.450674 0.286162
0.579673 0.453863 0.291777
0.600402 0.457171 0.297478
0.621115 0.460689 0.303471
0.641746 0.464344 0.309711
0.662188 0.468451 0.316691
0.682387 0.472623 0.323787
0.702008 0.477094 0.331452
0.721687 0.481734 0.339316
0.740835 0.486219 0.346936
0.760122 0.490917 0.354781
0.251510 0.456741 0.251510
0.253480 0.456694 0.251587
0.255764 0.456661 0.251654
0.262036 0.456536 0.251890
0.269246 0.456425 0.252193
0.279528 0.456217 0.252661
0.290835 0.455913 0.253159
0.304116 0.455582 0.253707
0.318232 0.455310 0.254441
0.333591 0.454939 0.255335
0.349352 0.454504 0.256198
0.365800 0.454033 0.257211
0.382515 0.453562 0.258360
0.399691 0.453092 0.259656
0.416960 0.452655 0.261040
0.434472 0.452225 0.262594
0.452349 0.452265 0.264656
0.472947 0.454849 0.269409
0.493877 0.457938 0.274667
0.514868 0.461036 0.280074
0.535737 0.464282 0.285658
0.556682 0.467528 0.291367
0.577531 0.470909 0.297078
0.598300 0.474261 0.302799
0.619158 0.477924 0.308756
0.639845 0.481573 0.314955
0.660374 0.485596 0.321833
0.680604 0.489740 0.328882
0.699980 0.493881 0.336192
0.719486 0.498325 0.343814
0.738451 0.502491 0.351160
0.757549 0.506917 0.358781
0.261128 0.475858 0.261128
0.262981 0.475813 0.261204
0.265069 0.475795 0.261274
0.270957 0.475719 0.261585
0.277719 0.475593 0.261844
0.287135 0.475388 0.262140
0.297992 0.475155 0.262649
0.310487 0.474941 0.263333
0.324114 0.474674 0.263957
0.338600 0.474397 0.264728
0.354041 0.474003 0.265606
0.369867 0.473697 0.266672
0.386313 0.473274 0.267794
0.402919 0.472953 0.269066
0.419998 0.472564 0.270417
0.437114 0.472293 0.271954
0.454475 0.471980 0.273584
0.472245 0.472192 0.275781
0.492691 0.474910 0.280620
0.513495 0.478115 0.285962
0.534327 0.481390 0.291496
0.555196 0.484749 0.297146
0.576065 0.488216 0.302897
0.596966 0.491735 0.308745
0.617850 0.495450 0.314747
0.638734 0.499235 0.320860
0.659367 0.503318 0.327672
0.679587 0.507299 0.334570
0.698795 0.511288 0.341700
0.718056 0.515387 0.348977
0.736845 0.519355 0.356141
0.755744 0.523482 0.363503
0.270927 0.495007 0.270927
0.272603 0.494990 0.270972
0.274573 0.494963 0.271059
0.280080 0.494919 0.271386
0.286437 0.494863 0.271722
0.295281 0.494659 0.271890
0.305235 0.494470 0.272179
0.317369 0.494293 0.272949
0.330293 0.494098 0.273739
0.344408 0.493841 0.274448
0.359086 0.493574 0.275276
0.374645 0.493347 0.276335
0.390557 0.493097 0.277497
0.407001 0.492850 0.278785
0.423590 0.492607 0.280152
0.440558 0.492412 0.281684
0.457643 0.492310 0.283343
0.474921 0.492163 0.285131
0.492666 0.492606 0.287485
0.513025 0.495468 0.292440
0.533751 0.498879 0.297939
0.554599 0.502314 0.303552
0.575499 0.505964 0.309377
0.596391 0.509575 0.315237
0.617419 0.513485 0.321420
0.638358 0.517365 0.327617
0.659281 0.521520 0.334296
0.679607 0.525548 0.341117
0.698506 0.529206 0.347928
0.717573 0.533109 0.355008
0.736076 0.536731 0.361857
0.754831 0.540693 0.368978
0.281000 0.514420 0.281000
0.282618 0.514390 0.281074
0.284404 0.514376 0.281175
0.289572 0.514345 0.281439
0.295581 0.514326 0.281808
0.304023 0.514233 0.282111
0.313427 0.514026 0.282297
0.324707 0.513900 0.282860
0.337287 0.513735 0.283725
0.350771 0.513607 0.284579
0.365097 0.513387 0.285367
0.380049 0.513281 0.286420
0.395700 0.513102 0.287584
0.411633 0.513046 0.288930
0.428075 0.512902 0.290306
0.444661 0.512875 0.291874
0.461606 0.512838 0.293552
0.478660 0.512924 0.295391
0.495926 0.513013 0.297377
0.513662 0.513619 0.299862
0.533995 0.516730 0.304995
0.554779 0.520337 0.310650
0.575690 0.524061 0.316471
0.596637 0.527867 0.322424
0.617683 0.531859 0.328642
0.638805 0.535968 0.334994
0.659847 0.540232 0.341700
0.680363 0.544280 0.348340
0.699161 0.547799 0.354985
0.717900 0.551401 0.361721
0.736231 0.554821 0.368353
0.754700 0.558419 0.375186
0.291636 0.534255 0.291636
0.293075 0.534224 0.291668
0.294777 0.534221 0.291743
0.299496 0.534161 0.291934
0.305085 0.534133 0.292249
0.313242 0.534140 0.292745
0.322238 0.534054 0.293117
0.333032 0.533969 0.293553
0.344804 0.533847 0.294217
0.357996 0.533797 0.295139
0.371748 0.533715 0.296039
0.386453 0.533674 0.297124
0.401577 0.533654 0.298335
0.417358 0.533689 0.299693
0.433366 0.533722 0.301132
0.449841 0.533775 0.302723
0.466486 0.533937 0.304458
0.483467 0.534097 0.306350
0.500552 0.534421 0.308407
0.517890 0.534728 0.310563
0.535673 0.535624 0.313300
0.556104 0.538956 0.318606
0.577070 0.542945 0.324582
0.598033 0.546823 0.330555
0.619138 0.550983 0.336879
0.640273 0.555181 0.343260
0.661737 0.559728 0.350029
0.682350 0.563847 0.356674
0.700854 0.567114 0.362945
0.719483 0.570566 0.369547
0.737501 0.573631 0.375795
0.755797 0.577034 0.382391
0.302675 0.554463 0.302675
0.304071 0.554453 0.302727
0.305639 0.554453 0.302795
0.310164 0.554440 0.303001
0.315316 0.554403 0.303244
0.322999 0.554408 0.303670
0.331697 0.554424 0.304197
0.342093 0.554428 0.304825
0.353357 0.554379 0.305368
0.365883 0.554402 0.306203
0.379352 0.554402 0.307162
0.393503 0.554525 0.308325
0.408405 0.554581 0.309554
0.423717 0.554735 0.310950
0.439548 0.554868 0.312423
0.455681 0.555114 0.314108
0.472208 0.555367 0.315866
0.488954 0.555760 0.317826
0.505989 0.556155 0.319927
0.523151 0.556678 0.322196
0.540551 0.557296 0.324617
0.558456 0.558415 0.327508
0.579081 0.562116 0.333138
0.600065 0.566260 0.339255
0.621177 0.570501 0.345620
0.642402 0.574880 0.352094
0.663922 0.579526 0.358892
0.684895 0.583886 0.365546
0.703419 0.587051 0.371724
0.721750 0.590231 0.377968
0.739569 0.593066 0.383993
0.757544 0.596124 0.390184
0.314635 0.575549 0.314635
0.315938 0.575540 0.314697
0.317388 0.575520 0.314773
0.321605 0.575573 0.314993
0.326513 0.575566 0.315236
0.333736 0.575631 0.315599
0.341957 0.575696 0.316114
0.352034 0.575769 0.316842
0.362918 0.575820 0.317556
0.375086 0.575908 0.318410
0.387997 0.576025 0.319396
0.401919 0.576217 0.320557
0.416291 0.576449 0.321800
0.431426 0.576709 0.323246
0.446889 0.577027 0.324796
0.462896 0.577373 0.326495
0.479156 0.577817 0.328357
0.495817 0.578276 0.330360
0.512671 0.578941 0.332575
0.529799 0.579543 0.334880
0.547098 0.580405 0.337443
0.564604 0.581225 0.340011
0.582754 0.582717 0.343239
0.603420 0.586599 0.349055
0.624545 0.591057 0.355529
0.645769 0.595492 0.362032
0.667435 0.600348 0.368916
0.688472 0.604762 0.375596
0.707092 0.607868 0.381537
0.725422 0.610960 0.387614
0.742832 0.613375 0.393201
0.760613 0.616218 0.399228
0.327103 0.597125 0.327103
0.328330 0.597146 0.327165
0.329706 0.597126 0.327254
0.333770 0.597158 0.327483
0.338363 0.597222 0.327736
0.345276 0.597327 0.328156
0.353062 0.597425 0.328599
0.362651 0.597587 0.329313
0.373207 0.597715 0.330133
0.384974 0.597935 0.331097
0.397564 0.598096 0.332092
0.410956 0.598366 0.333292
0.425072 0.598689 0.334563
0.439770 0.599115 0.336030
0.455089 0.599518 0.337604
0.470743 0.600030 0.339373
0.486876 0.600569 0.341276
0.503277 0.601239 0.343352
0.520067 0.601997 0.345607
0.537023 0.602821 0.348022
0.554284 0.603746 0.350632
0.571723 0.604810 0.353368
0.589519 0.606035 0.356290
0.607653 0.607635 0.359617
0.628489 0.611866 0.365832
0.649676 0.616417 0.372378
0.671295 0.621324 0.379267
0.692521 0.625968 0.386005
0.711233 0.629130 0.391901
0.729590 0.632056 0.397687
0.746807 0.634240 0.403062
0.764204 0.636643 0.408606
0.340732 0.619870 0.340732
0.341888 0.619901 0.340824
0.343190 0.619902 0.340891
0.346990 0.619934 0.341143
0.351427 0.619974 0.341446
0.357966 0.620188 0.341892
0.365393 0.620307 0.342339
0.374605 0.620600 0.343066
0.384721 0.620846 0.343928
0.396131 0.621145 0.344878
0.408277 0.621445 0.345901
0.421412 0.621765 0.347175
0.435110 0.622118 0.348490
0.449610 0.622608 0.349998
0.464526 0.623166 0.351627
0.480052 0.623780 0.353435
0.495898 0.624499 0.355408
0.512201 0.625273 0.357524
0.528797 0.626214 0.359832
0.545676 0.627112 0.362271
0.562800 0.628198 0.364956
0.580210 0.629319 0.367752
0.597918 0.630771 0.370845
0.615773 0.632118 0.373904
0.634049 0.634022 0.377546
0.654944 0.638386 0.383858
0.676356 0.643239 0.390626
0.697539 0.647849 0.397334
0.716592 0.651121 0.403054
0.735047 0.654105 0.408828
0.751720 0.655751 0.413659
0.768885 0.657907 0.419008
0.354850 0.643155 0.354850
0.355975 0.643216 0.354943
0.357223 0.643241 0.355013
0.360878 0.643273 0.355293
0.365017 0.643292 0.355640
0.371410 0.643531 0.356101
0.378414 0.643722 0.356603
0.387278 0.644015 0.357301
0.396974 0.644361 0.358141
0.408003 0.644796 0.359157
0.419783 0.645172 0.360186
0.432496 0.645594 0.361436
0.445910 0.645992 0.362833
0.460012 0.646567 0.364395
0.474761 0.647188 0.366066
0.489914 0.647914 0.367890
0.505621 0.648724 0.369891
0.521626 0.649637 0.372045
0.538107 0.650649 0.374393
0.554798 0.651725 0.376886
0.571827 0.652859 0.379577
0.589057 0.654117 0.382394
0.606775 0.655634 0.385539
0.624459 0.657141 0.388676
0.642459 0.658801 0.392051
0.660668 0.660654 0.395709
0.681791 0.665262 0.402196
0.702880 0.669927 0.408816
0.722013 0.673222 0.414589
0.740680 0.676237 0.420148
0.757206 0.677729 0.424801
0.773771 0.679311 0.429600
0.370347 0.667922 0.370347
0.371431 0.667978 0.370469
0.372593 0.668009 0.370537
0.376001 0.668073 0.370819
0.380003 0.668112 0.371137
0.385985 0.668364 0.371646
0.392855 0.668625 0.372217
0.401183 0.668889 0.372836
0.410481 0.669214 0.373657
0.421189 0.669738 0.374736
0.432659 0.670244 0.375864
0.444995 0.670696 0.377064
0.458004 0.671165 0.378416
0.471836 0.671790 0.379995
0.486223 0.672502 0.381695
0.501171 0.673300 0.383548
0.516542 0.674189 0.385538
0.532434 0.675128 0.387708
0.548598 0.676214 0.390036
0.565158 0.677301 0.392491
0.581924 0.678503 0.395117
0.599104 0.679804 0.397945
0.616592 0.681439 0.400986
0.634246 0.682941 0.404088
0.651880 0.684484 0.407247
0.669818 0.686079 0.410588
0.687842 0.687825 0.414300
0.708706 0.692257 0.420682
0.728274 0.695907 0.426514
0.746996 0.698918 0.432078
0.762806 0.699652 0.436073
0.779230 0.701092 0.440708
0.385435 0.691693 0.385435
0.386463 0.691726 0.385525
0.387579 0.691783 0.385626
0.390872 0.691845 0.385907
0.394601 0.691938 0.386202
0.400429 0.692199 0.386758
0.406889 0.692514 0.387357
0.415048 0.692850 0.388036
0.423840 0.693160 0.388762
0.434117 0.693654 0.389816
0.445251 0.694272 0.391026
0.457293 0.694879 0.392351
0.469969 0.695388 0.393610
0.483364 0.696090 0.395156
0.497467 0.696863 0.396891
0.512087 0.697807 0.398776
0.527265 0.698735 0.400788
0.542803 0.699822 0.402947
0.558865 0.700937 0.405275
0.575107 0.702129 0.407740
0.591772 0.703360 0.410355
