LUTs/Generic Flat.cube
# Copyright: (C) Copyright by CREEP
TITLE "LUT created by for SGS8+"
LUT_3D_SIZE 8
DOMAIN_MIN 0.000000 0.000000 0.000000
DOMAIN_MAX 0.903226 0.903226 0.903226
0.000000 0.000000 0.000000
0.187691 0.082217 0.082217
0.312629 0.135133 0.135133
0.416574 0.176561 0.176561
0.507467 0.211705 0.211705
0.589350 0.242233 0.242233
0.664742 0.270201 0.270201
0.746980 0.308509 0.308509
0.105813 0.178495 0.105813
0.178864 0.178655 0.112421
0.300419 0.199970 0.148136
0.406822 0.223083 0.183578
0.499786 0.246437 0.215814
0.582932 0.269352 0.245018
0.659954 0.291601 0.271709
0.742177 0.325447 0.309437
0.166907 0.289810 0.166907
0.206649 0.289269 0.169197
0.287725 0.287550 0.175620
0.387617 0.301415 0.201204
0.480845 0.315641 0.227530
0.566379 0.330211 0.253228
0.646545 0.345979 0.278494
0.728376 0.370822 0.312939
0.212610 0.378603 0.212610
0.237599 0.377971 0.213451
0.299616 0.375964 0.216620
0.373927 0.373811 0.222538
0.462273 0.385083 0.243842
0.547996 0.397235 0.266656
0.630399 0.410413 0.290401
0.711560 0.429070 0.320770
0.251510 0.456741 0.251510
0.269246 0.456425 0.252193
0.318232 0.455310 0.254441
0.382515 0.453562 0.258360
0.452349 0.452265 0.264656
0.535737 0.464282 0.285658
0.619158 0.477924 0.308756
0.699980 0.493881 0.336192
0.291636 0.534255 0.291636
0.305085 0.534133 0.292249
0.344804 0.533847 0.294217
0.401577 0.533654 0.298335
0.466486 0.533937 0.304458
0.535673 0.535624 0.313300
0.619138 0.550983 0.336879
0.700854 0.567114 0.362945
0.340732 0.619870 0.340732
0.351427 0.619974 0.341446
0.384721 0.620846 0.343928
0.435110 0.622118 0.348490
0.495898 0.624499 0.355408
0.562800 0.628198 0.364956
0.634049 0.634022 0.377546
0.716592 0.651121 0.403054
0.398461 0.710772 0.398461
0.407012 0.711086 0.399110
0.434965 0.712574 0.401800
0.479343 0.715168 0.406647
0.535369 0.719269 0.413932
0.599024 0.724688 0.423571
0.668382 0.732311 0.436087
0.741865 0.741867 0.452264
0.068873 0.068873 0.203094
0.184666 0.087700 0.184828
0.310811 0.136374 0.199910
0.415398 0.177388 0.221790
0.506594 0.212131 0.245058
0.588543 0.242532 0.268099
0.664303 0.270299 0.290903
0.746466 0.308760 0.325169
0.108485 0.178676 0.178999
0.190746 0.190543 0.190820
0.308920 0.209399 0.209560
0.413020 0.230318 0.230408
0.504551 0.252026 0.252078
0.586875 0.273800 0.273831
0.663046 0.295546 0.295561
0.744671 0.328385 0.328398
0.167644 0.289572 0.205964
0.213577 0.295666 0.213594
0.293844 0.293676 0.216207
0.392675 0.306738 0.236211
0.485017 0.320173 0.257118
0.569995 0.334077 0.278148
0.649536 0.349289 0.299744
0.730784 0.373534 0.330486
0.212942 0.378377 0.237303
0.242141 0.382091 0.242147
0.303936 0.380194 0.244039
0.377713 0.377591 0.247893
0.465599 0.388525 0.266671
0.550930 0.400304 0.287022
0.633030 0.413232 0.308492
0.713827 0.431485 0.336327
0.251745 0.456641 0.268911
0.272445 0.459328 0.272447
0.321239 0.458190 0.274110
0.385432 0.456393 0.277274
0.455059 0.454975 0.282394
0.538210 0.466786 0.302021
0.621382 0.480293 0.323938
0.701976 0.495974 0.349547
0.291826 0.534190 0.304712
0.307717 0.536398 0.307716
0.347469 0.536188 0.309612
0.403938 0.535928 0.313005
0.468715 0.536121 0.318464
0.537815 0.537767 0.326500
0.621014 0.552966 0.349444
0.702702 0.568983 0.374346
0.340990 0.619934 0.350996
0.353508 0.621992 0.353506
0.386702 0.622595 0.355798
0.437039 0.624003 0.360080
0.497773 0.626322 0.366691
0.564628 0.629974 0.375733
0.635528 0.635512 0.387690
0.718371 0.652876 0.412656
0.398717 0.710926 0.406592
0.408846 0.712765 0.408846
0.436685 0.714079 0.411405
0.480950 0.716739 0.415970
0.536954 0.720765 0.423056
0.600799 0.726527 0.432626
0.669695 0.733635 0.444585
0.743200 0.743200 0.460367
0.115117 0.115117 0.343200
0.203086 0.123375 0.328151
0.306216 0.142376 0.306344
0.411640 0.179977 0.311325
0.503761 0.213643 0.320643
0.586446 0.243492 0.332429
0.662551 0.270680 0.345893
0.744730 0.308909 0.371790
0.136487 0.199407 0.311213
0.210013 0.209849 0.317588
0.306577 0.210386 0.306674
0.410190 0.230959 0.314370
0.502189 0.252656 0.324327
0.585053 0.274215 0.335943
0.661635 0.295939 0.349420
0.743138 0.328664 0.374336
0.170443 0.289183 0.289428
0.214949 0.295268 0.295512
0.307163 0.306997 0.307208
0.403889 0.318819 0.318975
0.494755 0.331162 0.331281
0.578550 0.344061 0.344143
0.657263 0.358299 0.358352
0.737275 0.381215 0.381256
0.214033 0.377671 0.299819
0.242859 0.381430 0.304100
0.314552 0.390181 0.314576
0.387674 0.387563 0.314891
0.474564 0.397857 0.328848
0.558985 0.408876 0.343924
0.640274 0.421119 0.360404
0.720312 0.438612 0.382632
0.252476 0.456175 0.317567
0.273175 0.459027 0.320960
0.329880 0.466235 0.329889
0.393765 0.464472 0.331297
0.462849 0.462773 0.333813
0.545396 0.474156 0.350257
0.628175 0.487294 0.368816
0.708152 0.502464 0.390662
0.292537 0.534075 0.343801
0.308268 0.536376 0.346556
0.354592 0.542940 0.354602
0.411050 0.542741 0.357228
0.475477 0.542751 0.361061
0.544200 0.544151 0.367236
0.627137 0.559164 0.387734
0.708393 0.574772 0.410267
0.341849 0.620205 0.383093
0.354185 0.622301 0.385386
0.393000 0.628471 0.393002
0.443227 0.629878 0.396721
0.503699 0.632102 0.402255
0.570330 0.635623 0.410056
0.641237 0.641207 0.420586
0.723388 0.657949 0.443756
0.399594 0.711357 0.432958
0.409741 0.713256 0.435177
0.441809 0.718899 0.441819
0.486312 0.721918 0.446349
0.542115 0.725799 0.452792
0.605592 0.731177 0.461366
0.674110 0.737990 0.472209
0.747918 0.747916 0.487166
0.153623 0.153623 0.462618
0.221810 0.157929 0.451598
0.319694 0.169716 0.428188
0.406373 0.184788 0.406468
0.498974 0.216224 0.406765
0.582455 0.245227 0.410401
0.659396 0.272086 0.416703
0.741714 0.309626 0.435327
0.166214 0.220334 0.434461
0.229828 0.229707 0.438557
0.320593 0.229643 0.422613
0.405955 0.232475 0.406048
0.497934 0.253553 0.407962
0.581385 0.275001 0.412213
0.658780 0.296627 0.418951
0.740297 0.328933 0.436910
0.191341 0.304780 0.397685
0.232803 0.310322 0.402200
0.321609 0.321462 0.410119
0.402093 0.318613 0.402142
0.492178 0.330809 0.408486
0.576173 0.344104 0.415733
0.655283 0.358582 0.424527
0.735379 0.381373 0.441405
0.216464 0.376941 0.377136
0.244427 0.380596 0.380771
0.315099 0.389644 0.389819
0.399744 0.399623 0.399777
0.485516 0.409458 0.409584
0.569109 0.420073 0.420175
0.649917 0.431983 0.432057
0.728967 0.448591 0.448650
0.253843 0.455455 0.382813
0.273918 0.458201 0.385737
0.330577 0.465755 0.394172
0.404778 0.475017 0.404793
0.473601 0.473525 0.405203
0.555582 0.484635 0.418576
0.637787 0.497451 0.433932
0.717216 0.512083 0.451574
0.293869 0.533917 0.399941
0.309337 0.536209 0.402450
0.355544 0.542943 0.410134
0.421147 0.552274 0.421154
0.485478 0.552515 0.423739
0.553787 0.553741 0.427869
0.636402 0.568572 0.445989
0.717257 0.583872 0.465566
0.343335 0.620587 0.431756
0.355632 0.622740 0.434026
0.394235 0.628926 0.441251
0.452512 0.638653 0.452519
0.512956 0.641051 0.457203
0.579264 0.644424 0.463528
0.649580 0.649559 0.472140
0.731671 0.666335 0.493357
0.401212 0.712259 0.475000
0.411219 0.714373 0.477173
0.443493 0.720123 0.483779
0.494702 0.729873 0.494696
0.550523 0.733951 0.500619
0.614041 0.739566 0.508452
0.682462 0.746315 0.518122
0.755359 0.755360 0.531289
0.187152 0.187152 0.569066
0.241414 0.189834 0.561123
0.332119 0.197471 0.539303
0.417088 0.208139 0.514791
0.493313 0.220357 0.493389
0.577216 0.247499 0.491242
0.655357 0.273778 0.492513
0.737495 0.310429 0.505549
0.195073 0.240933 0.545723
0.249134 0.249049 0.548199
0.334165 0.249322 0.532182
0.417148 0.251127 0.511858
0.492825 0.255422 0.492892
0.576457 0.276341 0.491765
0.655042 0.297978 0.493978
0.736332 0.329481 0.506482
0.213597 0.320411 0.504095
0.251894 0.325590 0.507506
0.336397 0.336263 0.512873
0.414315 0.333039 0.501312
0.488756 0.330512 0.488807
0.572664 0.343732 0.491740
0.652178 0.358763 0.496559
0.732217 0.381365 0.508852
0.234085 0.390150 0.472265
0.260995 0.393763 0.475494
0.329259 0.402434 0.482836
0.412179 0.412078 0.490187
0.484298 0.409169 0.484331
0.567416 0.419840 0.491709
0.648429 0.432083 0.500528
0.727473 0.448755 0.513350
0.256342 0.454956 0.455085
0.276146 0.457682 0.457809
0.331473 0.465153 0.465270
0.405361 0.474938 0.475045
0.485188 0.485115 0.485207
0.566597 0.496110 0.496189
0.648511 0.508890 0.508960
0.727453 0.523172 0.523233
0.295886 0.533741 0.464748
0.311156 0.536019 0.467149
0.356897 0.542772 0.474345
0.422183 0.552509 0.484776
0.496956 0.563636 0.496961
0.565319 0.565277 0.499861
0.647456 0.579918 0.516042
0.728061 0.595033 0.533039
0.345667 0.621230 0.490698
0.357962 0.623335 0.492914
0.396139 0.629721 0.499771
0.454234 0.639579 0.510621
0.524164 0.651788 0.524178
0.590591 0.655623 0.529646
0.660648 0.660630 0.536828
0.742131 0.676902 0.555841
0.403673 0.713574 0.528041
0.413511 0.715317 0.529946
0.445687 0.721504 0.536520
0.496868 0.731411 0.547231
0.561199 0.744266 0.561199
0.624521 0.749782 0.568225
0.692616 0.756333 0.576783
0.765270 0.765272 0.588493
0.217097 0.217097 0.666093
0.261195 0.218763 0.659865
0.344470 0.223937 0.641023
0.427252 0.231824 0.616858
0.502459 0.240930 0.592494
0.571514 0.251160 0.571577
0.650336 0.276297 0.569174
0.732357 0.311653 0.577989
0.222344 0.261217 0.646770
0.268254 0.268193 0.648820
0.347175 0.268762 0.633863
0.427699 0.270156 0.612614
0.502263 0.273228 0.590639
0.571112 0.278359 0.571162
0.650072 0.299408 0.569685
0.731517 0.330306 0.578441
0.235953 0.335424 0.605125
0.270734 0.340232 0.607999
0.350494 0.350390 0.611541
0.426283 0.347659 0.598409
0.499245 0.344830 0.582962
0.568690 0.343944 0.568716
0.648474 0.358966 0.570456
0.728438 0.381386 0.579259
0.252894 0.403559 0.567270
0.278211 0.406862 0.569796
0.344125 0.415423 0.575993
0.425140 0.425051 0.581777
0.495839 0.421896 0.573476
0.565298 0.419501 0.565324
0.646090 0.431940 0.571599
0.725203 0.448773 0.581615
0.272586 0.467382 0.542668
0.291750 0.470045 0.545158
0.345742 0.477445 0.551909
0.418365 0.487083 0.560385
0.497376 0.497299 0.569071
0.566447 0.496529 0.566464
0.648051 0.509363 0.577269
0.727111 0.523932 0.589356
0.299015 0.534034 0.534104
0.313966 0.536301 0.536365
0.358925 0.543041 0.543112
0.423588 0.552832 0.552893
0.498312 0.564539 0.564601
0.577491 0.577453 0.577505
0.659597 0.592336 0.592389
0.739934 0.607310 0.607353
0.348810 0.622217 0.555457
0.360862 0.624174 0.557481
0.398618 0.630585 0.564101
0.456307 0.640591 0.574518
0.526156 0.653194 0.587711
0.602860 0.667594 0.602868
0.673170 0.673149 0.609310
0.754382 0.689230 0.626652
0.407006 0.715370 0.588239
0.416662 0.717156 0.590060
0.448545 0.723182 0.596339
0.499481 0.733187 0.606783
0.563779 0.746307 0.620507
0.636697 0.761701 0.636705
0.704938 0.768569 0.644725
0.776669 0.776669 0.654621
0.247346 0.247346 0.760450
0.283509 0.248287 0.754516
0.358861 0.251072 0.737577
0.437918 0.256044 0.713428
0.511693 0.262523 0.687719
0.580099 0.270242 0.664270
0.644873 0.279764 0.644900
0.726518 0.313505 0.650517
0.250183 0.283243 0.742823
0.289153 0.289104 0.744109
0.361196 0.289173 0.729478
0.438474 0.289845 0.708316
0.511626 0.291831 0.684935
0.579929 0.295558 0.663140
0.645199 0.301869 0.645224
0.726019 0.331438 0.650567
0.258928 0.350824 0.701206
0.290401 0.355264 0.703388
0.364824 0.364730 0.705879
0.437789 0.362088 0.691686
0.509523 0.359517 0.674968
0.578291 0.358376 0.658672
0.644582 0.359866 0.644606
0.724212 0.381854 0.650529
0.272013 0.416656 0.659795
0.295724 0.419835 0.662146
0.358947 0.428160 0.667359
0.437839 0.437756 0.671868
0.507551 0.435016 0.662447
0.576181 0.432629 0.652413
0.643838 0.432244 0.643854
0.722680 0.448974 0.651483
0.290036 0.480286 0.630930
0.308214 0.482785 0.633146
0.360838 0.490050 0.639207
0.432095 0.499767 0.646912
0.510158 0.510075 0.654501
0.578534 0.509344 0.650494
0.647553 0.510058 0.647566
0.726474 0.524660 0.657770
0.315346 0.546904 0.617851
0.329907 0.549128 0.619984
0.373981 0.555789 0.626345
0.437657 0.565595 0.635512
0.511716 0.577395 0.646493
0.590574 0.590534 0.658572
0.661051 0.594136 0.661053
0.741257 0.609174 0.674536
0.353107 0.623839 0.623881
0.364958 0.625806 0.625842
0.402218 0.632095 0.632130
0.459165 0.642231 0.642268
0.528610 0.654938 0.654970
0.605253 0.669653 0.669690
0.686256 0.686235 0.686265
0.767418 0.702442 0.702458
0.411216 0.717670 0.653108
0.420920 0.719360 0.654766
0.452436 0.725725 0.661196
0.502734 0.735406 0.671064
0.566671 0.748556 0.684388
0.639354 0.764003 0.700097
0.718642 0.782157 0.718648
0.789773 0.789765 0.727197
0.277538 0.277538 0.827693
0.308063 0.278665 0.827860
0.378415 0.282505 0.828484
0.454751 0.286447 0.813341
0.525903 0.289825 0.784045
0.592517 0.294784 0.757104
0.656293 0.301723 0.734503
0.722760 0.318630 0.722773
0.281379 0.309342 0.828295
0.314809 0.314772 0.833417
0.382365 0.316603 0.832771
0.454730 0.315259 0.805599
0.525559 0.315687 0.780000
0.592432 0.317811 0.755299
0.656352 0.321999 0.733855
0.722480 0.335885 0.722493
0.287821 0.371631 0.798885
0.315291 0.375380 0.800351
0.384060 0.383978 0.801253
0.453599 0.381106 0.785580
0.523247 0.378154 0.766827
0.590551 0.376539 0.747921
0.655651 0.376779 0.731151
0.721124 0.384411 0.721134
0.296178 0.433429 0.752293
0.317931 0.436302 0.754114
0.377212 0.443905 0.758081
0.453030 0.452962 0.760974
0.520964 0.450111 0.750024
0.588450 0.447577 0.738324
0.655137 0.446739 0.727782
0.720511 0.450291 0.720523
0.310250 0.494562 0.717743
0.327731 0.497067 0.719749
0.377893 0.503910 0.725059
0.446944 0.513259 0.731667
0.523468 0.523414 0.738212
0.590954 0.522740 0.733115
0.659328 0.523338 0.729112
0.725682 0.525677 0.725689
0.333322 0.560257 0.700656
0.347414 0.562407 0.702608
0.389975 0.568929 0.708619
0.452422 0.578582 0.717284
0.525452 0.590379 0.727649
0.603577 0.603541 0.739160
0.673651 0.607268 0.741081
0.741862 0.610611 0.741869
0.369946 0.637088 0.704337
0.381613 0.639165 0.706390
0.417992 0.645396 0.712487
0.474091 0.655303 0.722173
0.542769 0.668030 0.734531
0.618888 0.682871 0.748906
0.699556 0.699528 0.765006
0.769452 0.704723 0.769456
0.416225 0.720278 0.720284
0.425863 0.722270 0.722277
0.456617 0.727931 0.727940
0.506627 0.737945 0.737953
0.570055 0.751097 0.751101
0.642768 0.766963 0.766968
0.721773 0.784987 0.784993
0.803955 0.803945 0.803962
