LUTs/Generic Flat.cube
# Copyright: (C) Copyright by CREEP
TITLE "LUT created by for SGS8+"
LUT_3D_SIZE 5
DOMAIN_MIN 0.000000 0.000000 0.000000
DOMAIN_MAX 0.903226 0.903226 0.903226
0.000000 0.000000 0.000000
0.283512 0.123109 0.123109
0.463362 0.194825 0.194825
0.608762 0.249385 0.249385
0.746980 0.308509 0.308509
0.153310 0.264398 0.153310
0.263020 0.262854 0.161796
0.440315 0.289819 0.210340
0.591506 0.318182 0.257461
0.732442 0.357730 0.311702
0.232375 0.418265 0.232375
0.292610 0.416726 0.234950
0.413302 0.413204 0.243507
0.561695 0.433803 0.281222
0.704683 0.460676 0.327277
0.302675 0.554463 0.302675
0.342093 0.554428 0.304825
0.439548 0.554868 0.312423
0.558456 0.558415 0.327508
0.703419 0.587051 0.371724
0.398461 0.710772 0.398461
0.426404 0.712171 0.401058
0.506139 0.716960 0.409957
0.615956 0.726368 0.426434
0.741865 0.741867 0.452264
0.104348 0.104348 0.310300
0.278039 0.129848 0.278173
0.460136 0.196742 0.293644
0.606566 0.250416 0.318373
0.745307 0.308920 0.358130
0.156637 0.263947 0.264187
0.280670 0.280523 0.280719
0.452922 0.303884 0.304002
0.601063 0.329139 0.329199
0.739376 0.366021 0.366058
0.233219 0.417732 0.292140
0.303266 0.426638 0.303278
0.422682 0.422585 0.305986
0.569540 0.441931 0.334996
0.711188 0.467680 0.372381
0.303375 0.554391 0.341020
0.349277 0.561128 0.349277
0.446430 0.561526 0.355033
0.564735 0.564695 0.366838
0.709081 0.592821 0.406751
0.399292 0.711241 0.424798
0.431615 0.717054 0.431620
0.511382 0.722077 0.439968
0.620838 0.731163 0.454955
0.746688 0.746687 0.478920
0.170894 0.170894 0.517239
0.302753 0.180918 0.491357
0.451199 0.203339 0.451290
0.599990 0.253174 0.451563
0.739750 0.310004 0.469960
0.196691 0.293053 0.460636
0.307687 0.307564 0.468800
0.447744 0.303705 0.447803
0.596038 0.329193 0.454381
0.735243 0.366320 0.473593
0.236614 0.416439 0.416590
0.304359 0.425387 0.425538
0.442473 0.442374 0.442492
0.587164 0.460789 0.460879
0.726877 0.484949 0.485010
0.305904 0.554364 0.437166
0.351384 0.561271 0.444737
0.463909 0.578251 0.463919
0.581384 0.581348 0.470760
0.724761 0.608844 0.503264
0.402342 0.712855 0.500403
0.434528 0.718853 0.506965
0.526574 0.736635 0.526582
0.635581 0.745704 0.538974
0.760067 0.760064 0.558506
0.224116 0.224116 0.689206
0.326481 0.228957 0.670554
0.468089 0.241809 0.628794
0.590215 0.258383 0.590248
0.730973 0.312240 0.596294
0.237967 0.320934 0.640394
0.334036 0.333947 0.645114
0.466759 0.330345 0.617734
0.588715 0.330160 0.588750
0.728233 0.366704 0.596988
0.266774 0.438869 0.576018
0.330636 0.447441 0.583138
0.464138 0.464054 0.595210
0.584956 0.460684 0.584976
0.724658 0.485531 0.601684
0.311048 0.555016 0.555076
0.355229 0.561816 0.561876
0.466428 0.579456 0.579499
0.602827 0.602791 0.602833
0.745494 0.630173 0.630206
0.407965 0.715842 0.604113
0.439738 0.721939 0.610406
0.530964 0.739885 0.628998
0.656464 0.766209 0.656469
0.779854 0.779854 0.672370
0.277538 0.277538 0.827693
0.359319 0.281395 0.828296
0.490794 0.287882 0.798179
0.608788 0.296294 0.751112
0.722760 0.318630 0.722773
0.286798 0.356203 0.813566
0.366507 0.366431 0.812950
0.489277 0.361998 0.781192
0.607575 0.359987 0.745259
0.721473 0.370097 0.721485
0.302345 0.463840 0.733121
0.360503 0.471586 0.738479
0.487639 0.487565 0.746954
0.605628 0.484361 0.732607
0.721986 0.486904 0.721995
0.340963 0.578081 0.699416
0.382973 0.584724 0.705689
0.491183 0.602204 0.721751
0.626027 0.625999 0.743504
0.747589 0.633311 0.747594
0.416225 0.720278 0.720284
0.447022 0.726175 0.726188
0.536996 0.744213 0.744219
0.662061 0.771224 0.771228
0.803955 0.803945 0.803962
